docs/assets/img/details/wap-line.svg

<svg width="1080" height="1080" xmlns="http://www.w3.org/2000/svg"><path d="M1080 526.092c0 290.556-237.348 526.092-530.184 526.092a531.072 531.072 0 01-256.284-65.46L0 1080l95.7-282.264a520.56 520.56 0 01-76.08-271.644C19.62 235.536 256.992 0 549.816 0 842.676 0 1080 235.536 1080 526.092zM549.816 83.784c-245.808 0-445.752 198.42-445.752 442.308 0 96.78 31.548 186.408 84.912 259.32L133.284 949.68l171.3-54.444A445.468 445.468 0 00549.828 968.4c245.772 0 445.752-198.396 445.752-442.284S795.612 83.784 549.816 83.784zm267.732 563.472c-3.276-5.364-11.928-8.604-24.912-15.048-13.008-6.444-76.92-37.656-88.8-41.94-11.916-4.296-20.604-6.456-29.256 6.444-8.652 12.912-33.564 41.94-41.16 50.544-7.584 8.628-15.156 9.708-28.164 3.252-12.984-6.444-54.852-20.076-104.496-63.996-38.628-34.176-64.716-76.368-72.3-89.292-7.572-12.9-.792-19.872 5.7-26.292 5.856-5.784 13.008-15.06 19.5-22.584 6.516-7.536 8.676-12.9 12.984-21.516 4.356-8.604 2.184-16.128-1.08-22.596-3.24-6.444-29.256-69.9-40.08-95.724-10.824-25.8-21.636-21.504-29.232-21.504-7.572 0-16.248-1.08-24.912-1.08-8.664 0-22.752 3.228-34.668 16.128-11.904 12.912-45.468 44.112-45.468 107.556 0 63.456 46.548 124.764 53.064 133.356 6.492 8.592 89.88 143.04 222 194.676C698.4 789.252 698.4 772.032 722.232 769.872c23.808-2.148 76.872-31.188 87.744-61.284 10.8-30.144 10.8-55.956 7.572-61.332z" fill="#FFF"/></svg>

<?xml version="1.0" encoding="UTF-8"?>
<svg width="1080px" height="1080px" viewBox="0 0 1080 1080" version="1.1" xmlns="http://www.w3.org/2000/svg" xmlns:xlink="http://www.w3.org/1999/xlink">
    <title>Shape</title>
    <g id="Page-1" stroke="none" stroke-width="1" fill="none" fill-rule="evenodd">
        <g id="wap-line" fill="#FFFFFF" fill-rule="nonzero">
            <g id="Group">
                <path d="M1080,526.092 C1080,816.648 842.652,1052.184 549.816,1052.184 C460.234343,1052.32835 372.071797,1029.8099 293.532,986.724 L0,1080 L95.7,797.736 C45.821287,715.916288 19.4945372,621.916504 19.62,526.092 C19.62,235.536 256.992,0 549.816,0 C842.676,0 1080,235.536 1080,526.092 Z M549.816,83.784 C304.008,83.784 104.064,282.204 104.064,526.092 C104.064,622.872 135.612,712.5 188.976,785.412 L133.284,949.68 L304.584,895.236 C377.415803,943.087165 462.68335,968.525157 549.828,968.40046 C795.6,968.40046 995.58,770.004 995.58,526.116 C995.58,282.228 795.612,83.784 549.816,83.784 Z M817.548,647.256 C814.272,641.892 805.62,638.652 792.636,632.208 C779.628,625.764 715.716,594.552 703.836,590.268 C691.92,585.972 683.232,583.812 674.58,596.712 C665.928,609.624 641.016,638.652 633.42,647.256 C625.836,655.884 618.264,656.964 605.256,650.508 C592.272,644.064 550.404,630.432 500.76,586.512 C462.132,552.336 436.044,510.144 428.46,497.22 C420.888,484.32 427.668,477.348 434.16,470.928 C440.016,465.144 447.168,455.868 453.66,448.344 C460.176,440.808 462.336,435.444 466.644,426.828 C471,418.224 468.828,410.7 465.564,404.232 C462.324,397.788 436.308,334.332 425.484,308.508 C414.66,282.708 403.848,287.004 396.252,287.004 C388.68,287.004 380.004,285.924 371.34,285.924 C362.676,285.924 348.588,289.152 336.672,302.052 C324.768,314.964 291.204,346.164 291.204,409.608 C291.204,473.064 337.752,534.372 344.268,542.964 C350.76,551.556 434.148,686.004 566.268,737.64 C698.4,789.252 698.4,772.032 722.232,769.872 C746.04,767.724 799.104,738.684 809.976,708.588 C820.776,678.444 820.776,652.632 817.548,647.256 L817.548,647.256 Z" id="Shape"></path>
            </g>
        </g>
    </g>
</svg>
